icons/strikethrough.svg

<svg width="24" height="24" fill="none" xmlns="http://www.w3.org/2000/svg"><g clip-path="url(#a)"><path d="M17.154 14c.23.516.346 1.09.346 1.72 0 1.342-.524 2.392-1.571 3.147C14.88 19.622 13.433 20 11.586 20c-1.64 0-3.263-.381-4.87-1.144V16.6c1.52.877 3.075 1.316 4.666 1.316 2.551 0 3.83-.732 3.839-2.197a2.21 2.21 0 0 0-.648-1.603l-.12-.117H3v-2h18v2h-3.846V14Zm-4.078-3H7.629a4.087 4.087 0 0 1-.481-.522C6.716 9.92 6.5 9.246 6.5 8.452c0-1.236.466-2.287 1.397-3.153C8.83 4.433 10.271 4 12.222 4c1.471 0 2.879.328 4.222.984v2.152c-1.2-.687-2.515-1.03-3.946-1.03-2.48 0-3.719.782-3.719 2.346 0 .42.218.786.654 1.099.436.313.974.562 1.613.75.62.18 1.297.414 2.03.699Z" /></g><defs><clipPath id="a"><path fill="#fff" d="M0 0h24v24H0z"/></clipPath></defs></svg>

<svg xmlns="http://www.w3.org/2000/svg" width="24" height="24" fill="none"><g clip-path="url(#a)"><g><path fill="#121212" d="M17.154 14C17.384 14.516 17.5 15.09 17.5 15.72C17.5 17.062 16.976 18.112 15.929 18.867C14.88 19.622 13.433 20 11.586 20C9.946 20 8.323 19.619 6.716 18.856V16.6C8.236 17.477 9.791 17.916 11.382 17.916C13.933 17.916 15.212 17.184 15.221 15.719C15.2263 15.422 15.1716 15.1269 15.0603 14.8515C14.9489 14.5761 14.7832 14.3259 14.573 14.116L14.453 13.999H3V11.999H21V13.999H17.154V14ZM13.076 11H7.629C7.45383 10.8403 7.29289 10.6656 7.148 10.478C6.716 9.92 6.5 9.246 6.5 8.452C6.5 7.216 6.966 6.165 7.897 5.299C8.83 4.433 10.271 4 12.222 4C13.693 4 15.101 4.328 16.444 4.984V7.136C15.244 6.449 13.929 6.106 12.498 6.106C10.018 6.106 8.779 6.888 8.779 8.452C8.779 8.872 8.997 9.238 9.433 9.551C9.869 9.864 10.407 10.113 11.046 10.301C11.666 10.481 12.343 10.715 13.076 11Z"/></g></g><defs><clipPath id="a"><rect width="24" height="24" fill="white"/></clipPath></defs></svg>
